X: 4
T: The Four Courts
R: reel
M: 4/4
L: 1/8
K: Amix
|:eA A2 eAfA | eA A2 d2 (3Bcd | eA A2 fd d2 | fage d2 (3Bcd |
eA A2 eAfA | eA A2 d2 (3Bcd | eA A2 fage | fage d2 (3Bcd ||
|:B2 gB aBgB | B2 ge d2 (3Bcd | B2 gB aBgB | fage d2 (3Bcd |
B2 gB aBgB | B2 ge d2 cd | ea a2 ageg | agec d2 (3Bcd ||
|:e3 a f3 a | efec d2 cd | e3 a f3 e | dfaf dfaf |
e3 a f3 a | efec d2 (3Bcd | ea a2 ageg | agec d2 cd ||


Tune 2278	Setting 15644

